public/logos/doc-money-on-chain.svg

<?xml version="1.0" encoding="UTF-8"?> <svg xmlns="http://www.w3.org/2000/svg" xmlns:xlink="http://www.w3.org/1999/xlink" width="256px" height="256px" viewBox="0 0 256 256" version="1.1"><title>DOC_Section</title><g id="Desktop" stroke="none" stroke-width="1" fill="none" fill-rule="evenodd"><g id="Home" transform="translate(-300, -2109)" fill="#00C76A" fill-rule="nonzero"><g id="DOC_Section" transform="translate(300, 2109)"><path d="M64.0866589,93.4740463 C70.1164193,93.3664375 76.071707,94.8185177 81.3751936,97.6895147 C86.2906093,100.404302 90.3466247,104.442575 93.0829286,109.346046 C95.8189084,114.563846 97.248214,120.367509 97.248214,126.259115 C97.248214,132.150721 95.8189084,137.954374 93.0829286,143.172174 C90.3517896,148.079555 86.2944968,152.119118 81.3751936,154.828723 C76.0748088,157.707763 70.1173684,159.16036 64.0866589,159.044183 L39.4594595,159.044183 L39.4594595,93.4740463 L64.0866589,93.4740463 Z M75.5554529,139.84419 C78.4423177,135.896361 79.8826214,131.075289 79.6343961,126.190852 C79.8812212,121.306583 78.4410543,116.485979 75.5554529,112.537523 C74.1856842,110.837041 72.4316839,109.486138 70.4377991,108.596011 C68.4439143,107.705884 66.2671525,107.301977 64.0866589,107.41752 L56.6797227,107.41752 L56.6797227,144.964184 L64.0866589,144.964184 C66.2671525,145.079727 68.4439143,144.675811 70.4377991,143.785684 C72.4316839,142.895557 74.1856842,141.544671 75.5554529,139.84419 Z" id="Vector"></path><path d="M103.287752,147.899775 C101.158452,143.889557 100.045045,139.418362 100.045045,134.877903 C100.045045,130.337444 101.158452,125.866259 103.287752,121.856041 C105.424876,118.122631 108.619869,115.105805 112.46963,113.186172 C116.833539,111.184739 121.577984,110.148649 126.378968,110.148649 C131.179951,110.148649 135.924379,111.184739 140.288288,113.186172 C144.129975,115.111075 147.31809,118.127021 149.45309,121.856041 C151.582389,125.866259 152.695805,130.337444 152.695805,134.877903 C152.695805,139.418362 151.582389,143.889557 149.45309,147.899775 C147.31809,151.628794 144.129975,154.64474 140.288288,156.569644 C135.924379,158.571077 131.179951,159.607158 126.378968,159.607158 C121.577984,159.607158 116.833539,158.571077 112.46963,156.569644 C108.619869,154.65001 105.424876,151.633185 103.287752,147.899775 Z M136.209354,134.826709 C136.358974,131.762326 135.428887,128.742552 133.58109,126.293373 C132.676386,125.274414 131.565999,124.458779 130.32311,123.900215 C129.080221,123.34165 127.733058,123.05284 126.370425,123.05284 C125.007793,123.05284 123.660629,123.34165 122.41774,123.900215 C121.174851,124.458779 120.064464,125.274414 119.15976,126.293373 C117.472078,128.819265 116.57128,131.78888 116.57128,134.826709 C116.57128,137.864537 117.472078,140.834152 119.15976,143.360044 C120.064464,144.379003 121.174851,145.194638 122.41774,145.753202 C123.660629,146.311767 125.007793,146.600577 126.370425,146.600577 C127.733058,146.600577 129.080221,146.311767 130.32311,145.753202 C131.565999,145.194638 132.676386,144.379003 133.58109,143.360044 C135.428887,140.910866 136.358974,137.891091 136.209354,134.826709 Z" id="Vector"></path><path d="M170.666508,97.0411212 C176.003025,94.184699 181.98931,92.7616345 188.040365,92.910992 C192.97171,92.8226153 197.852482,93.9169735 202.273983,96.1024511 C206.345391,98.1127633 209.808822,101.169802 212.309157,104.960058 C214.88655,108.826393 216.415603,113.295848 216.746516,117.930717 L199.509167,117.930717 C199.024318,114.931274 197.560052,112.176765 195.344911,110.097128 C193.12266,108.109318 190.218002,107.057515 187.238246,107.161652 C185.211316,107.085168 183.198276,107.526024 181.388848,108.442682 C179.579419,109.35934 178.033177,110.721614 176.895833,112.401121 C174.209298,116.520869 172.884045,121.380137 173.107035,126.293391 C172.865964,131.185967 174.160891,136.031453 176.810512,140.151517 C177.945866,141.834174 179.491241,143.199801 181.300799,144.11951 C183.110357,145.039219 185.124411,145.482673 187.152907,145.408045 C190.134711,145.50574 193.039037,144.447966 195.25959,142.455518 C197.47766,140.385106 198.942862,137.634835 199.423846,134.638989 L216.746516,134.638989 C216.451143,139.26025 214.969904,143.727429 212.4457,147.609657 C209.938727,151.38986 206.476637,154.439817 202.410526,156.450187 C197.989025,158.635664 193.108253,159.730022 188.176907,159.641646 C182.076827,159.80436 176.040272,158.368776 170.666508,155.477389 C165.842214,152.808375 161.916699,148.770035 159.385434,143.872062 C156.674061,138.417574 155.33818,132.382612 155.494246,126.293391 C155.348453,120.188416 156.702115,114.140838 159.436638,108.680585 C161.953794,103.780799 165.860003,99.7321214 170.666508,97.0411212 Z" id="Vector"></path><path d="M128.000871,22.1867126 C154.119756,22.2230564 179.294262,31.9587468 198.641417,49.5054019 C217.988572,67.0520569 230.129321,91.1589575 232.708756,117.150188 C235.28819,143.141419 228.122463,169.164344 212.601475,190.1714 C197.080486,211.178456 174.310564,225.67227 148.708298,230.841551 C123.106032,236.010831 96.4963335,231.487119 74.0405757,218.147839 C51.584818,204.80856 34.8836324,183.604538 27.1764763,158.648631 C19.4693202,133.692724 21.3055574,106.763775 32.3290202,83.0850753 C43.352483,59.4063754 62.7774207,40.665722 86.8360695,30.4981766 C99.8589043,24.9869275 113.85989,22.1600318 128.000871,22.1867126 Z M128.000871,7.25337838 C104.127639,7.25337933 80.7904592,14.3321841 60.9401262,27.5947398 C41.0897932,40.8572954 25.6177517,59.7079946 16.4803038,81.7633376 C7.34285592,103.81868 4.95034982,128.088196 9.60530379,151.503202 C14.2602578,174.918208 25.7536247,196.427185 42.6321615,213.310494 C59.5106982,230.193804 81.016419,241.693261 104.43011,246.354835 C127.843801,251.016409 152.113985,248.630772 174.17191,239.49956 C196.229835,230.368348 215.084909,214.901622 228.353076,195.055039 C241.621242,175.208457 248.70665,151.873273 248.713401,128.000044 C248.713401,95.9850898 235.995502,65.2813842 213.35751,42.6433919 C190.719518,20.0053997 160.015825,7.28751243 128.000871,7.28751243 L128.000871,7.25337838 Z" id="Vector"></path></g></g></g></svg>

<svg xmlns="http://www.w3.org/2000/svg" width="256" height="256" viewBox="0 0 256 256"><title>DOC_Section</title><g fill="#00c76a"><path d="M64.087 93.474a35 35 0 0 1 17.288 4.216 30.04 30.04 0 0 1 11.708 11.656 36.42 36.42 0 0 1 0 33.826 29.9 29.9 0 0 1-11.708 11.657 34.8 34.8 0 0 1-17.288 4.215H39.459v-65.57zm11.468 46.37a21.3 21.3 0 0 0 4.08-13.653 21.3 21.3 0 0 0-4.08-13.653 13.79 13.79 0 0 0-11.468-5.12H56.68v37.546h7.407a13.79 13.79 0 0 0 11.468-5.12m27.733 8.056a27.77 27.77 0 0 1 0-26.044 21.8 21.8 0 0 1 9.182-8.67 33.37 33.37 0 0 1 27.818 0 21.83 21.83 0 0 1 9.165 8.67 27.77 27.77 0 0 1 0 26.044 21.83 21.83 0 0 1-9.165 8.67 33.37 33.37 0 0 1-27.818 0 21.8 21.8 0 0 1-9.182-8.67m32.921-13.073c.15-3.065-.78-6.084-2.628-8.534a9.643 9.643 0 0 0-14.421 0 15.36 15.36 0 0 0 0 17.067 9.643 9.643 0 0 0 14.421 0 13.1 13.1 0 0 0 2.628-8.533m34.458-37.786a35 35 0 0 1 17.373-4.13 30.9 30.9 0 0 1 14.234 3.191 25.6 25.6 0 0 1 10.035 8.858 26.8 26.8 0 0 1 4.438 12.97h-17.238a13.76 13.76 0 0 0-4.164-7.833 11.55 11.55 0 0 0-8.107-2.935 11.95 11.95 0 0 0-10.342 5.24 23.5 23.5 0 0 0-3.789 13.891 23.5 23.5 0 0 0 3.704 13.859 11.95 11.95 0 0 0 10.342 5.256c2.982.098 5.886-.96 8.107-2.952a13.65 13.65 0 0 0 4.164-7.817h17.323a26.95 26.95 0 0 1-4.301 12.97 25.7 25.7 0 0 1-10.035 8.841 30.9 30.9 0 0 1-14.234 3.192 35 35 0 0 1-17.51-4.165 27.9 27.9 0 0 1-11.282-11.605 37.34 37.34 0 0 1-3.89-17.579 37.34 37.34 0 0 1 3.942-17.612 28 28 0 0 1 11.23-11.64"/><path d="M128 22.187a105.37 105.37 0 1 1-41.164 8.311 105.1 105.1 0 0 1 41.165-8.311m0-14.934A120.713 120.713 0 1 0 248.714 128 120.713 120.713 0 0 0 128.001 7.288z"/></g></svg>
